rospo-light/small/status/network-wired-no-route-symbolic.svg

<?xml version="1.0" encoding="UTF-8" standalone="no"?>
<svg
   xmlns:dc="http://purl.org/dc/elements/1.1/"
   xmlns:cc="http://creativecommons.org/ns#"
   xmlns:rdf="http://www.w3.org/1999/02/22-rdf-syntax-ns#"
   xmlns:svg="http://www.w3.org/2000/svg"
   xmlns="http://www.w3.org/2000/svg"
   xmlns:sodipodi="http://sodipodi.sourceforge.net/DTD/sodipodi-0.dtd"
   xmlns:inkscape="http://www.inkscape.org/namespaces/inkscape"
   width="22"
   height="22"
   version="1.1"
   id="svg4"
   sodipodi:docname="network-wired-no-route-symbolic.svg"
   inkscape:version="0.92.1 r">
  <metadata
     id="metadata10">
    <rdf:RDF>
      <cc:Work
         rdf:about="">
        <dc:format>image/svg+xml</dc:format>
        <dc:type
           rdf:resource="http://purl.org/dc/dcmitype/StillImage" />
      </cc:Work>
    </rdf:RDF>
  </metadata>
  <defs
     id="defs8" />
  <sodipodi:namedview
     pagecolor="#ffffff"
     bordercolor="#666666"
     borderopacity="1"
     objecttolerance="10"
     gridtolerance="10"
     guidetolerance="10"
     inkscape:pageopacity="0"
     inkscape:pageshadow="2"
     inkscape:window-width="769"
     inkscape:window-height="480"
     id="namedview6"
     showgrid="false"
     inkscape:zoom="10.727273"
     inkscape:cx="-20.31563"
     inkscape:cy="11"
     inkscape:window-x="0"
     inkscape:window-y="0"
     inkscape:window-maximized="0"
     inkscape:current-layer="svg4" />
  <g
     id="g4488"
     transform="translate(3,3)">
    <path
       id="path2"
       d="M 2,2 C 2,2 1,2 1,3 v 9 c 0,1 1,1 1,1 h 2 l 1,1 h 6 l 1,-1 h 2 c 0,0 1,0.13 1,-1 V 3 C 15,2 14,2 14,2 Z m 6,2 c 1.1,0 2,0.895 2,2 0,1.105 -0.9,2 -2,2 V 9 H 7 V 7 H 8 C 8.55,7 9,6.552 9,6 9,5.448 8.55,5 8,5 7.45,5 7,5.448 7,6 H 6 C 6,4.895 6.9,4 8,4 Z m -1,6 h 1 v 1 H 7 Z"
       style="fill:#5c616c"
       inkscape:connector-curvature="0" />
  </g>
</svg>

<svg xmlns="http://www.w3.org/2000/svg" width="16" height="16" version="1.1">
 <path style="fill:#5c616c" d="M 2 2 C 2 2 1 2 1 3 L 1 12 C 1 13 2 13 2 13 L 4 13 L 5 14 L 11 14 L 12 13 L 14 13 C 14 13 15 13.13 15 12 L 15 3 C 15 2 14 2 14 2 L 2 2 z M 8 4 C 9.1 4 10 4.895 10 6 C 10 7.105 9.1 8 8 8 L 8 9 L 7 9 L 7 7 L 8 7 C 8.55 7 9 6.552 9 6 C 9 5.448 8.55 5 8 5 C 7.45 5 7 5.448 7 6 L 6 6 C 6 4.895 6.9 4 8 4 z M 7 10 L 8 10 L 8 11 L 7 11 L 7 10 z"/>
</svg>
